!!!COM: Music21
!!!OTL: Marcha Procesional de Aldán
!!!OMV: pezas_marchas_marcha-procesional-de-aldan_marcha-procesional-de-aldan-partitura.musicxml
**kern
*I"Bagpipes
*I'Bag
*clefG^2
*k[]
*M3/4
=1
!LO:TX:a:t=Andante
*MM96
!LO:TX:a:t=[quarter]=96
8cccL
8bbJ
8cccL
8ggJ
8eeL
8ffJ
=
4.gg
8ee
8ffL
8eeJ
=
8ddL
8eeJ
8ffL
8ddJ
8bL
8ddJ
=
8ccL
8ddJ
8eeL
8ffJ
4gg
=
8cccL
8bbJ
8cccL
8ggJ
8eeL
8ffJ
=
4.gg
8ee
8ddL
8eeJ
=
8ddL
8eeJ
8ffL
8ddJ
8bL
8ddJ
=
2.cc
!!linebreak:original
=||
*M3/4
!LO:TX:a:t=Andante
*MM96
!LO:TX:a:t=[quarter]=96
8cccL
8bbJ
8cccL
8ggJ
8eeL
8ffJ
=
4.gg
8ee
8ffL
8eeJ
=
8ddL
8eeJ
8ffL
8ddJ
8bL
8ddJ
=
8ccL
8ddJ
8eeL
8ffJ
4gg
=
8cccL
8bbJ
8cccL
8ggJ
8eeL
8ffJ
=
4.gg
8ee
8ddL
8eeJ
=
8ddL
8eeJ
8ffL
8ddJ
8bL
8ddJ
=
2.cc
!!linebreak:original
=||
8ddL
8bJ
8ddL
8bJ
8ddL
8ffJ
=
8eeL
8ggJ
8eeL
8ccJ
8eeL
8ggJ
=
8ffL
8ddJ
8bL
8ddJ
8ffL
8eeJ
=
8ggL
8eeJ
8ccL
8eeJ
8ggL
8ccJ
=
8ddL
8bJ
8ddL
8bJ
8ddL
8ffJ
=
8eeL
8ggJ
8eeL
8ccJ
8eeL
8ggJ
=
8ffL
8ddJ
8bL
8ddJ
8ffL
8bJ
=
2.cc
!!linebreak:original
=||
8ddL
8bJ
8ddL
8bJ
8ddL
8ffJ
=
8eeL
8ggJ
8eeL
8ccJ
8eeL
8ggJ
=
8ffL
8ddJ
8bL
8ddJ
8ffL
8eeJ
=
8ggL
8eeJ
8ccL
8eeJ
8ggL
8ccJ
=
8ddL
8bJ
8ddL
8bJ
8ddL
8ffJ
=
8eeL
8ggJ
8eeL
8ccJ
8eeL
8ggJ
=
8ffL
8ddJ
8bL
8ddJ
8ffL
8bJ
=
2.cc
!!linebreak:original
=||
2dd
4ff
=
2ee
4gg
=
2ff
4aa
=
2gg
4ee
=
2dd
4ff
=
2ee
4gg
=
4aa
8ggL
8ffJ
8eeL
8ddJ
=
2.cc
==
*-
